X: 2991
T: Batt Henry's
R: barndance
M: 4/4
K: Gmajor
(3def|:g2 B2 d2 G2|B2 D>B A>G F>A|f>e d>c B2 G>B|F>A f>e d>c (3def|
g2 B2 d2 G2|B2 D>B A>G F>A|f>e d>c B2 c>A|G2 F2 G2 (3ABc|
d2 B2 d2 B2|d2 e2 e>d ^c>d|a>b a>g f>d e>f|g>f g>b a>g e>B|
(3ddd B2 d2 B2|d2 e2 e>d ^c>d|a>b a>g f>d e>f|(3gag (3fga g2 (3Bcd|
|:(3efe d>^c d>e f>g|(3aba g>f g2 a>g|(3fgf (3efe (3ded (3cdc|
[1B>A B>c d>c B>d:|2 (3BcB (3ABA G2 a>g2||
K:D
|:f>g f>e f2 a2|d>c d>c d2 f>d|e>^d e>f ge ce|
[1d>c d>f a>b a>g:|2 (3ded c2 d2||

